src/assets/htmltemplateicon.svg

<svg width="56" height="56" viewBox="0 0 56 56" fill="none" xmlns="http://www.w3.org/2000/svg">
<path d="M40.1019 53H15.6122C11.9388 53 9 50.0204 9 46.3878V9.65324C9 5.97978 11.9388 3.04102 15.6122 3.04102H33.9795C34.102 3.04102 34.2244 3.08183 34.3468 3.20428L46.5917 15.4491C46.6733 15.5308 46.755 15.694 46.755 15.8165V46.4286C46.7141 50.0613 43.7754 53 40.1019 53ZM15.6122 4.0206C12.5102 4.0206 9.97959 6.55121 9.97959 9.65324V46.3878C9.97959 49.4898 12.5102 52.0204 15.6122 52.0204H40.1019C43.204 52.0204 45.7346 49.4898 45.7346 46.3878V15.9797L33.7754 4.0206H15.6122Z" fill="#B30000" stroke="#B30000" stroke-width="0.9"/>
<path d="M40.1006 46.8775H15.6109C15.3252 46.8775 15.1211 46.6326 15.1211 46.3877C15.1211 46.1428 15.366 45.8979 15.6109 45.8979H40.1006C40.3863 45.8979 40.5904 46.1428 40.5904 46.3877C40.5904 46.6326 40.3863 46.8775 40.1006 46.8775ZM40.1006 41.9796H15.6109C15.3252 41.9796 15.1211 41.7347 15.1211 41.4898C15.1211 41.2449 15.366 41 15.6109 41H40.1006C40.3863 41 40.5904 41.2449 40.5904 41.4898C40.5904 41.7347 40.3863 41.9796 40.1006 41.9796ZM40.1006 37.0816H15.6109C15.3252 37.0816 15.1211 36.8367 15.1211 36.5918C15.1211 36.3469 15.366 36.1021 15.6109 36.1021H40.1006C40.3863 36.1021 40.5904 36.3469 40.5904 36.5918C40.5904 36.8367 40.3863 37.0816 40.1006 37.0816Z" fill="#B30000" stroke="#B30000" stroke-width="0.932941"/>
<path d="M33.9805 9.65319C33.9805 13.0409 36.7152 15.7756 40.1029 15.7756H46.2253L33.9805 3.53076V9.65319Z" fill="#F9AFB2"/>
<path d="M16.4278 30.306C16.4278 30.7958 16.1012 31.1223 15.6114 31.1223C15.1217 31.1223 14.8359 30.7958 14.8359 30.306C14.8359 29.857 15.1625 29.5305 15.6114 29.5305C16.0604 29.5305 16.4278 29.857 16.4278 30.306ZM23.5298 30.6733C23.5298 30.9999 23.2849 31.1223 22.9992 31.1223C22.6726 31.1223 22.4686 30.9591 22.4686 30.6733V26.9999C22.4686 26.0203 22.0604 25.4897 21.2033 25.4897C20.5502 25.4897 20.0604 25.7754 19.6522 26.306C19.3665 26.7142 19.2441 27.0407 19.2441 27.4897V30.7142C19.2441 31.0407 19.04 31.1631 18.7543 31.1631C18.4278 31.1631 18.2237 30.9999 18.2237 30.7142V22.4285C18.2237 22.1428 18.4278 21.9795 18.7543 21.9795C19.04 21.9795 19.2441 22.1019 19.2441 22.4285V25.3264C19.2441 25.4897 19.2033 25.7346 19.1625 25.8978C19.5298 25.0815 20.1829 24.4693 21.4073 24.4693C22.7951 24.4693 23.5298 25.2856 23.5298 26.7142V30.6733ZM25.8155 23.2448C25.8155 22.9591 26.0196 22.7958 26.3461 22.7958C26.6318 22.7958 26.8767 22.9591 26.8767 23.2448V24.6325H28.3461C28.6318 24.6325 28.7543 24.8366 28.7543 25.0815C28.7543 25.3672 28.591 25.5305 28.3461 25.5305H26.8767V29.408C26.8767 29.9795 27.1216 30.2244 27.5298 30.2244C27.8155 30.2244 28.0196 30.1427 28.2236 30.0203C28.3053 29.9795 28.3461 29.9795 28.4277 29.9795C28.591 29.9795 28.7543 30.1019 28.7951 30.2652C28.8359 30.3468 28.8359 30.4284 28.8359 30.5101C28.8359 30.6733 28.7543 30.8366 28.591 30.9182C28.2645 31.0815 27.9379 31.1631 27.4481 31.1631C26.5094 31.1631 25.8155 30.6733 25.8155 29.4897V25.5713H24.9175C24.6318 25.5713 24.5094 25.3672 24.5094 25.1223C24.5094 24.8774 24.6318 24.6734 24.9175 24.6734H25.8155V23.2448ZM38.3052 30.6733C38.3052 30.9999 38.0603 31.1223 37.7746 31.1223C37.4481 31.1223 37.244 30.9591 37.244 30.6733V26.9999C37.244 26.0203 36.9583 25.4489 36.142 25.4489C35.5297 25.4489 35.1216 25.8162 34.8359 26.2244C34.6726 26.4693 34.5093 26.9183 34.5093 27.2448V30.6325C34.5093 30.9591 34.3053 31.0815 33.9787 31.0815C33.6522 31.0815 33.4481 30.9182 33.4481 30.6325V26.9591C33.4481 25.9795 33.1624 25.4081 32.3461 25.4081C31.7338 25.4081 31.3665 25.7754 31.0808 26.1836C30.8767 26.5101 30.7542 26.9183 30.7542 27.2856V30.6325C30.7542 30.9591 30.5502 31.0815 30.2645 31.0815C29.9379 31.0815 29.7338 30.9182 29.7338 30.6325V25.0407C29.7338 24.755 29.9379 24.5917 30.2645 24.5917C30.5502 24.5917 30.7542 24.755 30.7542 25.0407V25.2856C30.7542 25.4489 30.7134 25.6529 30.6726 25.857C30.9583 25.1632 31.4481 24.5509 32.591 24.5509C33.6114 24.5509 34.142 24.9999 34.3053 25.8162C34.6318 25.204 35.0399 24.5509 36.3461 24.5509C37.693 24.5509 38.2644 25.3672 38.2644 26.7958V30.6733H38.3052ZM39.8971 22.4693C39.8971 22.1428 40.1012 22.0203 40.4277 22.0203C40.7542 22.0203 40.9583 22.1836 40.9583 22.4693V30.6733C40.9583 30.9999 40.7542 31.1223 40.4277 31.1223C40.1012 31.1223 39.8971 30.9591 39.8971 30.6733V22.4693Z" fill="#B30000" stroke="#B30000" stroke-width="0.4"/>
<path d="M46.2229 16.2653H40.1005C36.427 16.2653 33.4883 13.2857 33.4883 9.65304V3.53061C33.4883 3.32653 33.6107 3.12245 33.8148 3.04082C34.0189 2.95918 34.223 3 34.3862 3.16326L46.6311 15.4081C46.7944 15.5714 46.8352 15.7755 46.7535 15.9795C46.6719 16.1836 46.427 16.2653 46.2229 16.2653ZM34.4679 4.7551V9.65304C34.4679 12.7551 36.9985 15.2857 40.1005 15.2857H44.9984L34.4679 4.7551Z" fill="#B30000" stroke="#B30000" stroke-width="0.932941"/>
</svg>

<svg width="56" height="56" viewBox="0 0 56 56" fill="none" xmlns="http://www.w3.org/2000/svg">
    <path d="M40.102 53h-24.49A6.61 6.61 0 0 1 9 46.388V9.653a6.585 6.585 0 0 1 6.612-6.612H33.98c.123 0 .245.04.368.163L46.592 15.45a.608.608 0 0 1 .163.367V46.43A6.637 6.637 0 0 1 40.102 53zM15.612 4.02A5.644 5.644 0 0 0 9.98 9.654v36.735a5.644 5.644 0 0 0 5.632 5.632h24.49a5.644 5.644 0 0 0 5.633-5.632V15.98L33.775 4.02H15.612z" fill="#014598" stroke="#014598" stroke-width=".9"/>
    <path d="M40.102 46.877h-24.49a.496.496 0 0 1-.49-.49c0-.244.245-.49.49-.49h24.49c.286 0 .49.246.49.49 0 .246-.204.49-.49.49zm0-4.897h-24.49a.496.496 0 0 1-.49-.49c0-.245.245-.49.49-.49h24.49c.286 0 .49.245.49.49s-.204.49-.49.49zm0-4.898h-24.49a.496.496 0 0 1-.49-.49c0-.245.245-.49.49-.49h24.49c.286 0 .49.245.49.49s-.204.49-.49.49z" fill="#014598" stroke="#014598" stroke-width=".933"/>
    <path d="M33.98 9.653a6.114 6.114 0 0 0 6.122 6.123h6.123L33.98 3.53v6.122z" fill="#F9AFB2"/>
    <path d="M16.428 30.306c0 .49-.326.816-.816.816-.49 0-.776-.326-.776-.816a.75.75 0 0 1 .776-.776c.449 0 .816.327.816.776zm7.102.367c0 .327-.245.45-.53.45-.327 0-.53-.164-.53-.45V27c0-.98-.41-1.51-1.266-1.51-.653 0-1.143.285-1.551.816-.286.408-.408.735-.408 1.184v3.224c0 .327-.204.45-.49.45-.327 0-.53-.164-.53-.45V22.43c0-.286.203-.45.53-.45.286 0 .49.123.49.45v2.897c0 .164-.041.409-.082.572.367-.817 1.02-1.429 2.245-1.429 1.388 0 2.122.817 2.122 2.245v3.96zm2.286-7.428c0-.286.204-.45.53-.45.286 0 .531.164.531.45v1.387h1.47c.285 0 .408.205.408.45 0 .285-.163.448-.408.448h-1.47v3.878c0 .572.245.816.653.816.286 0 .49-.081.694-.204.082-.04.123-.04.204-.04.163 0 .327.122.368.285.04.082.04.163.04.245a.449.449 0 0 1-.244.408c-.327.163-.654.245-1.143.245-.94 0-1.633-.49-1.633-1.673V25.57h-.898c-.286 0-.408-.204-.408-.449 0-.245.122-.449.408-.449h.898v-1.428zm12.49 7.428c0 .327-.245.45-.53.45-.327 0-.532-.164-.532-.45V27c0-.98-.285-1.551-1.102-1.551-.612 0-1.02.367-1.306.775-.163.245-.326.694-.326 1.02v3.389c0 .326-.204.448-.53.448-.327 0-.531-.163-.531-.448v-3.674c0-.98-.286-1.55-1.102-1.55-.613 0-.98.366-1.266.775a2.163 2.163 0 0 0-.326 1.102v3.346c0 .327-.204.45-.49.45-.327 0-.53-.164-.53-.45v-5.591c0-.286.203-.45.53-.45.286 0 .49.164.49.45v.245c0 .163-.041.367-.082.571.286-.694.776-1.306 1.919-1.306 1.02 0 1.55.449 1.714 1.265.326-.612.734-1.265 2.04-1.265 1.348 0 1.919.816 1.919 2.245v3.877h.04zm1.592-8.204c0-.326.204-.449.53-.449.327 0 .53.164.53.45v8.203c0 .327-.203.45-.53.45-.326 0-.53-.164-.53-.45V22.47z" fill="#014598" stroke="#014598" stroke-width=".4"/>
    <path d="M46.223 16.265h-6.122a6.61 6.61 0 0 1-6.612-6.612V3.531a.53.53 0 0 1 .326-.49.505.505 0 0 1 .572.122l12.245 12.245a.505.505 0 0 1 .122.572c-.082.204-.326.285-.53.285zM34.468 4.755v4.898a5.644 5.644 0 0 0 5.633 5.633h4.898l-10.53-10.53z" fill="#014598" stroke="#014598" stroke-width=".933"/>
</svg>
